src/sponsor_logos/solidworks.svg

<svg xmlns="http://www.w3.org/2000/svg" xml:space="preserve" style="fill-rule:evenodd;clip-rule:evenodd;stroke-linejoin:round;stroke-miterlimit:2" viewBox="0 0 150 31"><path d="M552.71 714.79a.26.26 0 0 1-.089.204.3.3 0 0 1-.192.059h-.333l-2.57-5.824-.67 3.12a.5.5 0 0 1-.519.446h-.432l-2.029-3.532.02 5.51a.27.27 0 0 1-.092.215.3.3 0 0 1-.205.065h-.433v-6.62h.552v.001l.012-.001a.7.7 0 0 1 .429.126c.109.078.203.187.286.318l1.776 3.169.74-3.613h.474c.302 0 .555.176.687.476l2.554 5.743c.018.047.033.078.034.138m23.281.263h-2.732c-1.276-.003-1.411-1.051-1.417-1.545 0-.52.378-.934.566-1.102l1.86-1.822c.221-.217.328-.473.328-.711 0-.403-.308-.733-.806-.731-.001-.003-2.408-.004-2.43-.01-.079-.015-.162-.118-.16-.201h-.007l.007-.003v-.497h2.704c1.277.005 1.411 1.051 1.418 1.545l-.001.004c.001.684-.629 1.213-.633 1.215l-1.764 1.736c-.22.217-.356.44-.357.68.001.405.309.733.805.733.003.001 2.438.003 2.458.009l.006-.018-.005.018c.079.015.163.119.161.201v.002zm-19.498-.664c-1.214.067-2.602-.648-3.079-2.578-.47-1.892.408-2.811 1.598-2.964l.124-.006c1.228-.065 2.535.651 2.995 2.581.449 1.893-.431 2.844-1.638 2.967m2.348-3.024c-.447-1.882-1.803-3.367-3.968-3.2v.001c-2.014.233-2.591 2.005-2.166 3.703.469 1.88 1.82 3.365 3.954 3.2v-.002c1.987-.232 2.582-2.006 2.18-3.702m12.055 3.625a.3.3 0 0 1-.182.051h-.323l-3.407-2.914.453 2.575a.27.27 0 0 1-.099.281.35.35 0 0 1-.208.07h-.328l-1.23-6.62h.728l.539 2.93 2.698-2.932h.323a.3.3 0 0 1 .181.053.22.22 0 0 1 .084.18c0 .119-.097.239-.097.239l-2.553 2.774 3.408 2.894s.096.082.096.239a.23.23 0 0 1-.083.18m-6.841-.942c-.133.129-.336.191-.65.25a3 3 0 0 1-.37.035c-.379.021-1.505.004-1.85.001l-.436-2.408c.259-.004.556-.008.765-.009.589 0 1.159.019 1.562.129 1.037.281 1.551 1.457.979 2.002m.669.4c.295-.335.317-.957.233-1.34-.102-.468-.547-1.649-2.215-1.798l1.405-2.407s.096-.144.096-.239c.001-.063-.027-.141-.084-.18a.3.3 0 0 0-.18-.053h-.371l-1.648 2.84-1.327.006-.515-2.846h-.729l1.232 6.622h1.701c1.005 0 1.887-.015 2.402-.605m-48.958-.809a1.58 1.58 0 0 1 .675-1.574l2.116-1.477c.222-.153.332-.259.305-.438-.04-.247-.169-.347-.608-.347h-2.461c-.263 0-.406-.129-.454-.426v-.917h2.883c1.264 0 1.889.745 2.015 1.537.118.745-.132 1.277-.613 1.62l-2.249 1.596c-.181.13-.226.197-.213.295.02.162.168.229.424.229h2.57c.314 0 .493.321.543.639v.705h-3.398c-.754 0-1.413-.674-1.535-1.442m25.616 1.443h-3.564l-.018-.107c-.083-.449-.046-.97.665-.97h2.64c1.045 0 1.445-.756 1.186-2.175-.238-1.3-.938-2.293-2.002-2.293h-1.431l.679 3.724h-1.217c-.164 0-.277-.119-.296-.225l-.835-4.575h2.791c2.061 0 3.498.97 3.943 3.417.344 1.88-.439 3.204-2.541 3.204m-8.461-5.546h-2.813l.972 5.32a.194.194 0 0 1-.193.225h-1.238l-1.209-6.62h4.66l.121.661c.054.297-.046.414-.3.414m3.506 5.546h-1.238l-1.209-6.621h1.472l1.168 6.396a.192.192 0 0 1-.193.225m-11.449-1.135c-1.343 0-2.047-.781-2.299-2.317-.252-1.539.195-2.318 1.538-2.318s2.046.779 2.298 2.318c.253 1.536-.194 2.317-1.537 2.317m2.999-2.317c-.309-1.88-1.581-3.454-3.946-3.454-2.367 0-3.122 1.574-2.813 3.454.308 1.879 1.581 3.451 3.947 3.451s3.121-1.572 2.812-3.451m-17.2 5.758c-1.407.231-3.922.32-4.782-.998-.664-1.018.591-2.413 1.734-3.764.916-1.082 1.913-2.116 1.506-2.72-.332-.494-2.463-.493-3.197-.532-.891-.047-2.175-.05-2.399-.172-.201-.108-.313-.444.441-.579.606-.109 2.049-.33 3.571-.329 1.589 0 3.258.261 3.62 1.491.291.988-.718 2.047-1.605 3.121-.97 1.176-1.954 2.014-1.871 2.847.063.648 1.334.685 3.442.722.438.008 1.311.029 1.143.375-.15.306-.803.407-1.603.538m-6.485-2.933c-.902.619-2.51.826-3.834.757-1.179-.062-3.206-.437-3.13-.81.072-.403 1.355-.278 1.943-.278 1.293 0 3.345-.079 3.668-.912.697-1.795-4.029-5.018-5.037-4.708-.456.139.926 2.482 1.427 3.324.298.503.752 1.293.365 1.347-.433.06-.91-.684-1.22-1.113-.841-1.165-1.702-2.437-2.393-3.744-.214-.404-.922-1.619-.679-1.776.227-.146 1.308.062 2.683.607 4.322 1.711 6.268 3.941 6.789 5.783.183.649-.133 1.215-.582 1.523m-3.209 7.869c-.089.291 1.353.669 2.934.739 1.593.07 3.477-.247 3.829-1.298.575-1.722-2.342-4.233-4.883-5.467-.624-.302-1.001-.385-1.159-.364-.149.02-.173.16-.124.256.09.181.501.55 1.049.951 2.861 2.09 3.791 3.623 3.251 4.244-.347.398-1.797.675-3.303.675-.409 0-1.483-.089-1.594.264" style="fill:#ee2722;fill-rule:nonzero" transform="matrix(1.8601 0 0 -1.8601 -921.404 1344.987)"/></svg>

<?xml version="1.0" encoding="UTF-8" standalone="no"?>
<!DOCTYPE svg PUBLIC "-//W3C//DTD SVG 1.1//EN" "http://www.w3.org/Graphics/SVG/1.1/DTD/svg11.dtd">
<svg width="100%" height="100%" viewBox="0 0 150 31" version="1.1" xmlns="http://www.w3.org/2000/svg" xmlns:xlink="http://www.w3.org/1999/xlink" xml:space="preserve" style="fill-rule:evenodd;clip-rule:evenodd;stroke-linejoin:round;stroke-miterlimit:2;">
    <g transform="matrix(1,0,0,1,0.00598996,0.00669947)">
        <g transform="matrix(1,0,0,1,-346.74,-463.32)">
            <g transform="matrix(1.8601,0,0,-1.8601,-574.67,1808.3)">
                <path d="M552.71,714.79C552.712,714.859 552.681,714.947 552.621,714.994C552.56,715.043 552.494,715.053 552.429,715.053L552.096,715.053L549.526,709.229L548.856,712.349C548.817,712.623 548.597,712.81 548.337,712.795L547.905,712.795L545.876,709.263L545.896,714.773C545.898,714.847 545.869,714.937 545.804,714.988C545.741,715.04 545.67,715.053 545.599,715.053L545.166,715.053L545.166,708.433L545.718,708.433L545.718,708.434C545.721,708.434 545.726,708.433 545.73,708.433C545.892,708.431 546.039,708.472 546.159,708.559C546.268,708.637 546.362,708.746 546.445,708.877L548.221,712.046L548.961,708.433L549.435,708.433C549.737,708.433 549.99,708.609 550.122,708.909L552.676,714.652C552.694,714.699 552.709,714.73 552.71,714.79M575.991,715.053L573.259,715.053C571.983,715.05 571.848,714.002 571.842,713.508C571.842,712.988 572.22,712.574 572.408,712.406L574.268,710.584C574.489,710.367 574.596,710.111 574.596,709.873C574.596,709.47 574.288,709.14 573.79,709.142C573.789,709.139 571.382,709.138 571.36,709.132C571.281,709.117 571.198,709.014 571.2,708.931L571.193,708.931L571.2,708.928L571.2,708.431L573.904,708.431C575.181,708.436 575.315,709.482 575.322,709.976C575.322,709.978 575.321,709.978 575.321,709.98C575.322,710.664 574.692,711.193 574.688,711.195L572.924,712.931C572.704,713.148 572.568,713.371 572.567,713.611C572.568,714.016 572.876,714.344 573.372,714.344C573.375,714.345 575.81,714.347 575.83,714.353L575.836,714.335L575.831,714.353C575.91,714.368 575.994,714.472 575.992,714.554C575.992,714.554 575.991,714.555 575.992,714.556C575.992,714.56 575.991,714.959 575.991,715.053M556.493,714.389C555.279,714.456 553.891,713.741 553.414,711.811C552.944,709.919 553.822,709 555.012,708.847L555.136,708.841C556.364,708.776 557.671,709.492 558.131,711.422C558.58,713.315 557.7,714.266 556.493,714.389M558.841,711.365C558.394,709.483 557.038,707.998 554.873,708.165L554.873,708.166C552.859,708.399 552.282,710.171 552.707,711.869C553.176,713.749 554.527,715.234 556.661,715.069L556.661,715.067C558.648,714.835 559.243,713.061 558.841,711.365M570.896,714.99C570.84,715.032 570.777,715.04 570.714,715.041L570.391,715.041L566.984,712.127L567.437,714.702C567.465,714.845 567.396,714.942 567.338,714.983C567.278,715.029 567.203,715.053 567.13,715.053L566.802,715.053L565.572,708.433L566.3,708.433L566.839,711.363L569.537,708.431L569.86,708.431C569.924,708.433 569.986,708.442 570.041,708.484C570.097,708.523 570.127,708.601 570.125,708.664C570.125,708.783 570.028,708.903 570.028,708.903L567.475,711.677L570.883,714.571C570.883,714.571 570.979,714.653 570.979,714.81C570.98,714.873 570.952,714.949 570.896,714.99M564.055,714.048C563.922,714.177 563.719,714.239 563.405,714.298C563.323,714.313 563.188,714.325 563.035,714.333C562.656,714.354 561.53,714.337 561.185,714.334L560.749,711.926C561.008,711.922 561.305,711.918 561.514,711.917C562.103,711.917 562.673,711.936 563.076,712.046C564.113,712.327 564.627,713.503 564.055,714.048M564.724,714.448C565.019,714.113 565.041,713.491 564.957,713.108C564.855,712.64 564.41,711.459 562.742,711.31L564.147,708.903C564.147,708.903 564.243,708.759 564.243,708.664C564.244,708.601 564.216,708.523 564.159,708.484C564.103,708.442 564.042,708.431 563.979,708.431L563.608,708.431L561.96,711.271L560.633,711.277L560.118,708.431L559.389,708.431L560.621,715.053L562.322,715.053C563.327,715.053 564.209,715.038 564.724,714.448M515.766,713.639C515.683,713.106 515.847,712.48 516.441,712.065L518.557,710.588C518.779,710.435 518.889,710.329 518.862,710.15C518.822,709.903 518.693,709.803 518.254,709.803L515.793,709.803C515.53,709.803 515.387,709.674 515.339,709.377L515.339,708.46L518.222,708.46C519.486,708.46 520.111,709.205 520.237,709.997C520.355,710.742 520.105,711.274 519.624,711.617L517.375,713.213C517.194,713.343 517.149,713.41 517.162,713.508C517.182,713.67 517.33,713.737 517.586,713.737L520.156,713.737C520.47,713.737 520.649,714.058 520.699,714.376L520.699,715.081L517.301,715.081C516.547,715.081 515.888,714.407 515.766,713.639M541.382,715.082L537.818,715.082L537.8,714.975C537.717,714.526 537.754,714.005 538.465,714.005L541.105,714.005C542.15,714.005 542.55,713.249 542.291,711.83C542.053,710.53 541.353,709.537 540.289,709.537L538.858,709.537L539.537,713.261L538.32,713.261C538.156,713.261 538.043,713.142 538.024,713.036L537.189,708.461L539.98,708.461C542.041,708.461 543.478,709.431 543.923,711.878C544.267,713.758 543.484,715.082 541.382,715.082M532.921,709.536L530.108,709.536L531.08,714.856C531.098,714.963 531.019,715.081 530.887,715.081L529.649,715.081L528.44,708.461L533.1,708.461L533.221,709.122C533.275,709.419 533.175,709.536 532.921,709.536M536.427,715.082L535.189,715.082L533.98,708.461L535.452,708.461L536.62,714.857C536.64,714.964 536.56,715.082 536.427,715.082M524.978,713.947C523.635,713.947 522.931,713.166 522.679,711.63C522.427,710.091 522.874,709.312 524.217,709.312C525.56,709.312 526.263,710.091 526.515,711.63C526.768,713.166 526.321,713.947 524.978,713.947M527.977,711.63C527.668,709.75 526.396,708.176 524.031,708.176C521.664,708.176 520.909,709.75 521.218,711.63C521.526,713.509 522.799,715.081 525.165,715.081C527.53,715.081 528.286,713.509 527.977,711.63M510.777,717.388C509.37,717.619 506.855,717.708 505.995,716.39C505.331,715.372 506.586,713.977 507.729,712.626C508.645,711.544 509.642,710.51 509.235,709.906C508.903,709.412 506.772,709.413 506.038,709.374C505.147,709.327 503.863,709.324 503.639,709.202C503.438,709.094 503.326,708.758 504.08,708.623C504.686,708.514 506.129,708.293 507.651,708.294C509.24,708.294 510.909,708.555 511.271,709.785C511.562,710.773 510.553,711.832 509.666,712.906C508.696,714.082 507.712,714.92 507.795,715.753C507.858,716.401 509.129,716.438 511.237,716.475C511.675,716.483 512.548,716.504 512.38,716.85C512.23,717.156 511.577,717.257 510.777,717.388M504.292,714.455C503.39,715.074 501.782,715.281 500.458,715.212C499.279,715.15 497.252,714.775 497.328,714.402C497.4,713.999 498.683,714.124 499.271,714.124C500.564,714.124 502.616,714.045 502.939,713.212C503.636,711.417 498.91,708.194 497.902,708.504C497.446,708.643 498.828,710.986 499.329,711.828C499.627,712.331 500.081,713.121 499.694,713.175C499.261,713.235 498.784,712.491 498.474,712.062C497.633,710.897 496.772,709.625 496.081,708.318C495.867,707.914 495.159,706.699 495.402,706.542C495.629,706.396 496.71,706.604 498.085,707.149C502.407,708.86 504.353,711.09 504.874,712.932C505.057,713.581 504.741,714.147 504.292,714.455M501.083,722.324C500.994,722.615 502.436,722.993 504.017,723.063C505.61,723.133 507.494,722.816 507.846,721.765C508.421,720.043 505.504,717.532 502.963,716.298C502.339,715.996 501.962,715.913 501.804,715.934C501.655,715.954 501.631,716.094 501.68,716.19C501.77,716.371 502.181,716.74 502.729,717.141C505.59,719.231 506.52,720.764 505.98,721.385C505.633,721.783 504.183,722.06 502.677,722.06C502.268,722.06 501.194,721.971 501.083,722.324" style="fill:rgb(238,39,34);fill-rule:nonzero;"/>
            </g>
        </g>
    </g>
</svg>
